-----BEGIN PGP PUBLIC KEY BLOCK-----

mQINBGqdVxMBEACy3ZDyRh4Ur5fvC/sGYHblYMBSLF3YwnLem+oSWWLUXpmYqfkh
H8mhnRvpQYDiUHO4tYs1iKxZWMcG/tjWSdMN/gsjLCZNLmNgjaX4wR5HwXsd6MkC
JzahL9mj9qlzqkKH56cTynqJrBUKUQi8cnGttFDtTM+ePQrTE9frHwqSPHxn/kqS
NrPs0KM8Lu/l2NW8Of7/GA6CzA66CI0TM4T73ppeXjha1hxFl6TI8mg2t+tKwTi0
YveoSxNVmTAWTnvra22kPOphRUQs9a4OX1vhKgWECimbyT5fRZB+WL5uHtWG0ApE
jK9yEG4wIkhClpl8MmPJhDHCzSJvYxmkhOi+Goo6rUiE/DYfv6MmlzugkMq/e7yD
2ssJoff5CHcVwGROqzNUO6Hzgci3cUx/hnTBz5Og/lxOK1AXDd5C7MYb6hnept07
01Lpysn0oiH2uCEG2cFVL+Ubg/jLnYAotUheUZpmVeKYo5TA8UveRGqa9pMzQrYb
fjkoMm8TuvfehVXqqil0Q5dlLHSphQpOW3kzjKNpkCj9D7a5Nojca3SJLK53rHiN
OBeRh6V+EC+DbcifS6xmDaSvM7TuFEttFsEzKjY9q11tbzdd1MxZbqk6Z+MI6hHQ
KIav5+hwYIdswXFDgDX2n6jprw6/irVNle1Y1XJFmBQvPSt3cpW/hLwXPwARAQAB
tDFUZWxla2luIEFQVCBzaWduaW5nIGtleSA8a2Fpa2FuZ29mdXNhbkBnbWFpbC5j
b20+iQJOBBMBCgA4FiEEt/eXvOYjqMDAjtrnzwE4+t16U10FAmqdVxMCGwMFCwkI
BwIGFQoJCAsCBBYCAwECHgECF4AACgkQzwE4+t16U13tLw//XDOA1Mm16VrBpYxD
P7QShL6eRHBfTIoCJiG+fKL2dSssQbj132z5nbp0rTmvI+dJqQL58JIbva/h1NyX
hogSundkzWo3JYt5gn9AK4+doRaU0OLHM2CE5mLCAcr/ROmiVXSdNDdk6ziskurJ
ecRxw4aqxHJ4vCMSMcVJOxjH1ODKRjySL3hPziaF/rbiEf9U9fO2giEsxRJm1EoI
t1hP3vN+5pCXY3BR5RlBgiJ7JzVQZYzZ4SvAde+fntqLNBp/tSdpN0McRZr+KTs+
VTMY3S8frdKK3zSKC/nkQhEmWUVhll92xP9a25XVs/Mph/iEV5b5s47fgFsQgNgd
7cQuWqapSFG9hfDbyqXBoGSoOVkxftJ3RngbaerAfh0ApnRajzIQjWZrDdQ90FBT
B24U8Fc32V/NGBpIEiIv4MSt5SqaANfAw/DSeM7mBYmlnj7tmAIGdpLaVZEn2evt
Vvq0CwlvprMtP6zfUMAYsTVjLyAQBCqOkaHl4SOUVoEvOOTs/Ih+Z+p73cPMgzuI
kSGFBiNZPhuwlaTIfASsxFdTru8wdd7H+xnw075zSMwKAn/FIrYkTvh0nt+hVOtL
E4Am1aUjGueH+2xQnToFyvu33yyqWjkJnKlfQTdsIG4B3vtfH2thCygF/wC/NSfL
Liejvdo0Tme1DRbbeMHO0B9hiog=
=FhUo
-----END PGP PUBLIC KEY BLOCK-----
